symbols/web/auto_awesome_mosaic/materialsymbolsoutlined/auto_awesome_mosaic_wght300gradN25fill1_40px.svg

<svg xmlns="http://www.w3.org/2000/svg" height="40" width="40"><path d="M18.583 34H8.5q-1 0-1.75-.75T6 31.5v-23q0-1 .75-1.75T8.5 6h10.083Zm2.875-15.458V6H31.5q1 0 1.75.75T34 8.5v10.042Zm0 15.458V21.417H34V31.5q0 1-.75 1.75T31.5 34Z"/></svg>

<svg xmlns="http://www.w3.org/2000/svg" height="40" width="40"><path d="M18.583 34H8.5Q7.5 34 6.75 33.25Q6 32.5 6 31.5V8.5Q6 7.5 6.75 6.75Q7.5 6 8.5 6H18.583ZM21.458 18.542V6H31.5Q32.5 6 33.25 6.75Q34 7.5 34 8.5V18.542ZM21.458 34V21.417H34V31.5Q34 32.5 33.25 33.25Q32.5 34 31.5 34Z"/></svg>
